!!!OTL: 1734. Schlendrian.
!!!ARE: Europa, Mitteleuropa, Deutschland, Rheinland
!!!SCT: E1734
!!!TXL: @@DE
!!!YEM: Copyright 1995, estate of Helmut Schaffrath.
**kern	**text
*ICvox	*
*M2/4	*
*k[f#]	*
*G:	*
!LO:TX:a:t=Gemächlich.	!
!LO:TX:a:t=Volkslied aus den Rheinlanden.	!
{8d	Jetʒt
=1	=1
8g	geh
8b	ich
8ee	mei-
8dd	-nen
=2	=2
8dd	Schlen-
8a	-dri-
8a}	-an
{8b/	und
=3	=3
8cc	trin-
8d	-ke
8e	mei-
8f#	-nen
=4	=4
4g	Wein,
8r}	.
{8d	Und
=5	=5
8g	wenn
8b	ich
8ee	nicht
8dd	be-
=6	=6
8dd	-ʒah-
8a	-len
8a}	kann,
{8b/	ſo
=7	=7
8cc	iſt
8d	die
8e	Sor-
8f#	-ge
=8	=8
4g	mein.
8r}	.
{8b	Ja,
=9	=9
8.cc	ſchlüg'
16b	ich
8cc	auch
8cc	dies
=10	=10
4b	Glas
8r}	.
{8b	in
=11	=11
8cc	hun-
8ee	-dert-
8gg	-tau-
8ee	-ſend
=12	=12
4ee	Trüm-
8dd}	-mer,
{8b	ſo
=13	=13
8dd	hat
8cc	ſich
8cc	doch
8cc	kein
=14	=14
4b}	Menſch,
{4ee	kein
=15	=15
8dd	Menſch
8b	da-
8cc	-rum
8a	ʒu
=16	=16
4a	küm-
8g}	-mern.
{8b	ſo
=17	=17
8dd	hat
8cc	ſich
8cc	doch
8cc	kein
=18	=18
4b}	Menſch,
{4ee	kein
=19	=19
8dd	Menſch
8b	da-
8cc	-rum
8a	ʒu
=20	=20
4a	küm-
8g}	-mern.
==	==
!!!AGN: Scherz - Lied
!!!ONB: ESAC (Essen Associative Code) Database: ERK3
!!!AMT: simple duple
!!!AIN: vox
!!!EED: Helmut Schaffrath
!!!EEV: 1.0
!!!GTL: Scherz-, Spiel- und Spottlieder.
!!!URL-scan: https://rosdok.uni-rostock.de/mcrviewer/recordIdentifier/rosdok_ppn745177999/iview2/phys_0527.iview2?x=-449.8344612962892&y=1609.3775794850662&scale=0.47549036216460333&rotation=0&layout=singlePageLayout
!!!ENC: Anna Maria Matuszewska
!!!EEV: 2025/08/01
*-	*-
